X:48
T:Red, White and Blue
M:4/4
Q:1/4=100
L:1/8
K:D
%%MIDI channel 1
%%MIDI program 72
%%MIDI transpose 8
%%MIDI grace 1/8
%%MIDI ratio 3 1
A>A|d2 d>d e2 a>g|fd3 z2 A2|B2 ba gf ed|d4 c2 ze|e2 e>e e2 f>^g|ae3 z2 a2|
^gf ed cB e>G|A4 z2 Ac|e2 e>e dc BA|Ad3 z2 de|f2 f>f gf ed|e4 z2 df|
a2 a>a gf ed|cB3 z2 ba|gf ed c2 Bc|d4 z2 cd|e2 e>e e2 ag|f4 z2 cd|
e2 e>e e2 ag|f4 z2 df|a2 a>a gf ed|cB3 z2 ba|gf ed c2 Bc|d6|]

